src/actions/symbolic/non-starred-symbolic.svg

<svg width="16" height="16" version="1.1" xmlns="http://www.w3.org/2000/svg">
 <defs>
  <style id="current-color-scheme" type="text/css">
   .ColorScheme-Text { color:#2e3440; } .ColorScheme-Highlight { color:#88c0d0; } .ColorScheme-NeutralText { color:#d08770; } .ColorScheme-PositiveText { color:#a3be8c; } .ColorScheme-NegativeText { color:#bf616a; }
  </style>
 </defs>
 <path class="ColorScheme-Text" d="m7.9595 1a1 1 0 0 0-0.875 0.6l-1.488 3.4h-3.846c-0.92 1e-3 -1.35 1.137-0.664 1.748l2.994 2.652-1.521 4.264c-0.315 0.887 0.658 1.679 1.462 1.19l3.979-2.432 3.978 2.432a1 1 0 0 0 1.463-1.19l-1.521-4.264 2.994-2.652a1 1 0 0 0-0.664-1.748h-3.846l-1.404-3.209-0.084-0.191a1 1 0 0 0-0.149-0.24l-0.011-0.014a1 1 0 0 0-0.205-0.178 1 1 0 0 0-2e-3 -2e-3l-0.012-6e-3a1 1 0 0 0-0.238-0.113l-0.019-7e-3a1 1 0 0 0-0.28-0.04 1 1 0 0 0-0.041 0zm0.041 1 1 2.285 0.75 1.715h4.5l-3.5 3.102 1.75 4.898-3.629-2.217-0.871-0.533-4.5 2.75 1.75-4.898-3.5-3.102h4.5z" fill="currentColor" opacity=".3"/>
</svg>

<svg xmlns="http://www.w3.org/2000/svg" width="16" height="16"><path fill="currentColor" d="M7.96 1a1 1 0 0 0-.875.6L5.597 5H1.75C.83 5.001.4 6.137 1.087 6.748L4.08 9.4 2.56 13.664c-.315.887.658 1.679 1.462 1.19L8 12.422l3.978 2.432a1 1 0 0 0 1.463-1.19L11.92 9.4l2.994-2.652A1 1 0 0 0 14.25 5h-3.846L9 1.791 8.917 1.6a1 1 0 0 0-.15-.24l-.01-.014a1 1 0 0 0-.205-.178l-.002-.002-.012-.006a1 1 0 0 0-.238-.113l-.02-.007A1 1 0 0 0 8 1zM8 2l1 2.285L9.75 6h4.5l-3.5 3.102L12.5 14l-3.628-2.217L8 11.25 3.5 14l1.75-4.898L1.75 6h4.5z" opacity=".3" style="color:#2e3440"/></svg>
